X:6121
T:Smeceno Horo
O:england
C:Trad
R:
M:9/16
K:G
L:1/16
M: 8/16
^cdd c2 B2 A |\
M: 9/16
cBA cBA GF2 | FDEDFDE2D|1,3 cBAcBA^GA2 :|2,4 \
M: 7/16
F2DE^CD2 |
|: A2 ADE=F^G |\
M: 9/16
cBA cBA=G ^F2 |FDEDFDE2D |1,3\
M: 7/16
cBAB^GA2 :|2,4\
M: 7/16
F2DE^CD2 |
